white/theta.svg

<!-- Generated by IcoMoon.io -->
<svg version="1.1" xmlns="http://www.w3.org/2000/svg" width="32" height="32" viewBox="0 0 32 32">
<title>theta</title>
<path fill="#fff" d="M16 32c-8.837 0-16-7.163-16-16s7.163-16 16-16 16 7.163 16 16-7.163 16-16 16zM10.96 6l-0.96 0.993v18.014l0.96 0.993h10.080l0.96-0.993v-18.014l-0.96-0.993zM11.92 24.013v-16.026h8.16v16.026zM19.054 18.843v-1.948h-6.058v1.949h2.087v2.262h1.884v-2.262zM19.054 13.261h-2.087v-2.263h-1.884v2.263h-2.087v1.948h6.058z"></path>
</svg>

<svg height="32" viewBox="0 0 32 32" width="32" xmlns="http://www.w3.org/2000/svg"><path d="M16 32C7.163 32 0 24.837 0 16S7.163 0 16 0s16 7.163 16 16-7.163 16-16 16zM10.96 6l-.96.993v18.014l.96.993h10.08l.96-.993V6.993L21.04 6zm.96 18.013V7.987h8.16v16.026zm7.134-5.17v-1.948h-6.058v1.949h2.087v2.262h1.884v-2.262zm0-5.582h-2.087v-2.263h-1.884v2.263h-2.087v1.948h6.058z" fill="#fff" fill-rule="evenodd"/></svg>
